storage/app/icons/phosphoricons/bold/dots-six-vertical-bold.svg

<svg xmlns="http://www.w3.org/2000/svg" fill="currentColor" viewBox="0 0 256 256"><path d="M108 60a16 16 0 1 1-16-16 16 16 0 0 1 16 16m56 16a16 16 0 1 0-16-16 16 16 0 0 0 16 16m-72 36a16 16 0 1 0 16 16 16 16 0 0 0-16-16m72 0a16 16 0 1 0 16 16 16 16 0 0 0-16-16m-72 68a16 16 0 1 0 16 16 16 16 0 0 0-16-16m72 0a16 16 0 1 0 16 16 16 16 0 0 0-16-16"/></svg>

<svg xmlns="http://www.w3.org/2000/svg" viewBox="0 0 256 256" fill="currentColor"><path d="M108,60A16,16,0,1,1,92,44,16,16,0,0,1,108,60Zm56,16a16,16,0,1,0-16-16A16,16,0,0,0,164,76ZM92,112a16,16,0,1,0,16,16A16,16,0,0,0,92,112Zm72,0a16,16,0,1,0,16,16A16,16,0,0,0,164,112ZM92,180a16,16,0,1,0,16,16A16,16,0,0,0,92,180Zm72,0a16,16,0,1,0,16,16A16,16,0,0,0,164,180Z"/></svg>
